packages/gestalt-icons-android/vr-theme/ic_vr_scissors_gestalt.svg

<svg width="24" height="24" viewBox="0 0 24 24" fill="none" xmlns="http://www.w3.org/2000/svg">
<path fill-rule="evenodd" clip-rule="evenodd" d="M7.65621 9.45112C8.02435 9.25001 8.37033 8.99363 8.68198 8.68198C10.4393 6.92462 10.4393 4.07538 8.68198 2.31802C6.92462 0.56066 4.07538 0.56066 2.31802 2.31802C0.56066 4.07538 0.56066 6.92462 2.31802 8.68198C2.64677 9.01074 3.01374 9.27799 3.40463 9.48374L6.81233 12L3.40387 14.5168C1.97442 15.2706 1 16.7714 1 18.4998C1 20.9851 3.01472 22.9998 5.5 22.9998C7.98528 22.9998 10 20.9851 10 18.4998C10 16.7957 9.05274 15.3128 7.65604 14.549L9.00679 13.6204L17.4835 19.8796C18.444 20.5889 19.6712 20.8319 20.8296 20.5423L21.9246 20.2686C22.3424 20.1641 22.4415 19.6155 22.0866 19.3715L11.3639 12L22.0866 4.62851C22.4415 4.38451 22.3424 3.83587 21.9246 3.73141L20.8296 3.45767C19.6712 3.16806 18.444 3.41113 17.4835 4.12041L9.0068 10.3796L7.65621 9.45112ZM3.73223 7.26777C4.70854 8.24408 6.29146 8.24408 7.26777 7.26777C8.24408 6.29146 8.24408 4.70854 7.26777 3.73223C6.29146 2.75592 4.70854 2.75592 3.73223 3.73223C2.75592 4.70854 2.75592 6.29146 3.73223 7.26777ZM8 18.4998C8 19.8805 6.88071 20.9998 5.5 20.9998C4.11929 20.9998 3 19.8805 3 18.4998C3 17.1191 4.11929 15.9998 5.5 15.9998C6.88071 15.9998 8 17.1191 8 18.4998Z" fill="black"/>
</svg>

<svg xmlns="http://www.w3.org/2000/svg" width="24" height="24"><path d="M7.66 9.45a4.5 4.5 0 1 0-4.26.03L6.81 12l-3.4 2.52a4.5 4.5 0 1 0 4.25.03L9 13.62l8.47 6.26a4 4 0 0 0 3.35.66l1.1-.27a.5.5 0 0 0 .16-.9L11.36 12 22.1 4.63a.5.5 0 0 0-.17-.9l-1.09-.27a4 4 0 0 0-3.35.66l-8.47 6.26zM3.73 3.73a2.5 2.5 0 1 1 3.54 3.54 2.5 2.5 0 0 1-3.54-3.54M8 18.5a2.5 2.5 0 1 1-5 0 2.5 2.5 0 0 1 5 0"/></svg>
